X:1290
T:Rob Roy Reel, The
M:C|
L:1/8
C:Charlie McKerron
R:reel
D:The Irish Folk Festival 2001: Mad for Trad
Z:Devin McCabe
K:ADor
e2de Aede|ABBA ~G2Bd|e2de Aede|(e~g2)e fdaz|
!e2de Aede|ABBA G3A|aa2a g3g|fedf e~A3:|
!:gAAg- gAfg|edBd ~e2de|gAAg- gAfg|edBd ez A/2A/2A|
!gAAg- gAfg|edBd efge|azab f~g3|fedf e~A3:|
!:A3d e2de|A3d e2de|A3d e2de|(e~g2)e fddz|
!A3d eAde|A3d eAde|A3d ~e3a|1gedB BAAG:|2gedB BAA2|
!:~g3a zged|eABd efge|g3f efge|aege d2ef|
!~g3a zged|eABd efge|a3b f~g3|fedf e~A3:|
